images/icons/gofundme.svg

<svg fill="none" height="24" viewBox="0 0 24 24" width="24" xmlns="http://www.w3.org/2000/svg"><g fill="#fff"><path d="m20.132 18.4042c-1.6279-2.8157-4.6636-4.7076-8.1393-4.7076-3.49041 0-6.52616 1.8919-8.15402 4.7076z"/><path d="m23.549 9.19432c-.6159-.60129-1.5985-.60129-2.1998 0l-2.3318 2.33178c-.5866.5866-.6013 1.5399-.0586 2.1412l.0586.0586c.616.6013 1.5986.6013 2.1998 0l2.3318-2.3318c.6013-.6159.6013-1.5985 0-2.19978z"/><path d="m2.65078 9.19432c-.58662-.58662-1.53987-.60129-2.141157-.05866l-.058661.05866c-.601283.61595-.601283 1.59858 0 2.19978l2.331808 2.3318c.61595.6013 1.59853.6013 2.19982 0 .60128-.6159.60128-1.5985 0-2.1998z"/><path d="m12.0367 5h-.0734c-.8506 0-1.5398.68927-1.5545 1.55454v3.29972c0 .85064.7039 1.55454 1.5545 1.55454s1.5546-.7039 1.5546-1.55454v-3.29972c0-.83593-.66-1.52521-1.4812-1.55454z"/></g></svg>

<svg width="24" height="24" viewBox="0 0 24 24" fill="none" xmlns="http://www.w3.org/2000/svg">
<path d="M20.132 18.4042C18.5041 15.5885 15.4684 13.6966 11.9927 13.6966C8.50229 13.6966 5.46654 15.5885 3.83868 18.4042H20.132Z" fill="white"/>
<path d="M23.549 9.19432C22.9331 8.59303 21.9505 8.59303 21.3492 9.19432L19.0174 11.5261C18.4308 12.1127 18.4161 13.066 18.9588 13.6673L19.0174 13.7259C19.6334 14.3272 20.616 14.3272 21.2172 13.7259L23.549 11.3941C24.1503 10.7782 24.1503 9.7956 23.549 9.19432Z" fill="white"/>
<path d="M2.65078 9.19432C2.06416 8.6077 1.11091 8.59303 0.509623 9.13566L0.450962 9.19432C-0.150321 9.81027 -0.150321 10.7929 0.450962 11.3941L2.78277 13.7259C3.39872 14.3272 4.3813 14.3272 4.98259 13.7259C5.58387 13.11 5.58387 12.1274 4.98259 11.5261L2.65078 9.19432Z" fill="white"/>
<path d="M12.0367 5H11.9633C11.1127 5 10.4235 5.68927 10.4088 6.55454V9.85426C10.4088 10.7049 11.1127 11.4088 11.9633 11.4088C12.8139 11.4088 13.5179 10.7049 13.5179 9.85426V6.55454C13.5179 5.71861 12.8579 5.02933 12.0367 5Z" fill="white"/>
</svg>
